X: 035
T: Mrs Muir of Caldwell's Reel
C: attr. John French (1753-1803)
R: reel
B: "John French Collection", John French ed. p.3 #5
S: http://www.heallan.com/french.asp
Z: 2012 John Chambers <jc:trillian.mit.edu>
M: C
L: 1/8
K: Bb
F | B2(dB) ecdB | edcB (A/B/c) (AF) | B2(df) ecAF | GBAc B/B/B B :|
G | FBDB FDBD | EGCG EGcG | AcFc AcBg | dfcd B/B/B (BG) |
    FBDB FDBD | EGcB AcFA | Bbge fdTcB | FBAc B/B/B B |]

%%sep 2 1 500
%%sep 1 1 500

